localPackages/DesignSystem/Sources/DesignSystem/Resources/Assets.xcassets/IconSet/ic-switch-on.imageset/ic-switch-on.svg

<svg width="24" height="24" viewBox="0 0 24 24" fill="none" xmlns="http://www.w3.org/2000/svg">
<g id="ic-switch-on">
<path id="Icon" fill-rule="evenodd" clip-rule="evenodd" d="M6 2.99999C6 2.17157 6.68169 1.5 7.52259 1.5H15.8968C16.7377 1.5 17.4194 2.17157 17.4194 2.99999V11.0315L22.3316 18.6362C22.7281 19.2499 22.3836 20.0299 21.7244 20.2111L17.8642 22.3636C17.7041 22.4529 17.5232 22.4999 17.3392 22.4999H7.53751C7.52802 22.5 7.51854 22.5 7.50907 22.4999H7.06581C6.47718 22.4999 6 22.0298 6 21.4499V11.2499H6.01243C6.00417 11.1867 6 11.1228 6 11.0587V2.99999ZM7.52259 14.1912V20.8881L10.3557 19.3082L7.52259 14.1912ZM11.7583 20.2497L10.413 20.9999H17.2189L18.5639 20.2499H11.781C11.7734 20.2499 11.7658 20.2498 11.7583 20.2497ZM20.6004 18.7499L16.1349 11.8368C15.9794 11.5962 15.8968 11.3168 15.8968 11.0315V2.99999H7.52259V11.0587L11.781 18.7499H20.6004ZM12.0904 5.99997C12.5108 5.99997 12.8517 6.33576 12.8517 6.74997V8.99995C12.8517 9.41416 12.5108 9.74995 12.0904 9.74995C11.6699 9.74995 11.3291 9.41416 11.3291 8.99995V6.74997C11.3291 6.33576 11.6699 5.99997 12.0904 5.99997ZM14.0085 14.9359C13.8576 14.8723 13.785 14.9021 13.766 14.9129C13.7469 14.9238 13.6845 14.9708 13.6648 15.1314C13.6451 15.2922 13.6811 15.5182 13.817 15.75C13.9528 15.9817 14.1334 16.1254 14.2847 16.189C14.4356 16.2526 14.5082 16.2228 14.5272 16.212C14.5463 16.2011 14.6087 16.1541 14.6284 15.9936C14.6481 15.8327 14.6121 15.6067 14.4763 15.375C14.3404 15.1432 14.1598 14.9995 14.0085 14.9359ZM14.6066 13.5565C15.0889 13.7594 15.5102 14.1393 15.7949 14.625C16.0795 15.1106 16.2028 15.6601 16.14 16.173C16.0773 16.6862 15.8157 17.2112 15.2885 17.511C14.7614 17.8108 14.1691 17.7715 13.6866 17.5685C13.2043 17.3655 12.783 16.9856 12.4983 16.5C12.2137 16.0143 12.0904 15.4648 12.1532 14.9519C12.2159 14.4388 12.4775 13.9137 13.0047 13.6139C13.5318 13.3141 14.1241 13.3534 14.6066 13.5565Z" fill="#0F0F0F"/>
</g>
</svg>

<svg xmlns="http://www.w3.org/2000/svg" width="24" height="24" viewBox="0 0 24 24">
  <g class="ic-switch-on">
    <path fill-rule="evenodd" d="M6 3c0-.828.682-1.5 1.523-1.5h8.374c.84 0 1.522.672 1.522 1.5v8.031l4.913 7.605c.396.614.052 1.394-.608 1.575l-3.86 2.153c-.16.089-.34.136-.525.136H7.066C6.477 22.5 6 22.03 6 21.45v-10.2h.012A1.476 1.476 0 0 1 6 11.059V3Zm1.523 11.191v6.697l2.833-1.58-2.833-5.117Zm4.235 6.059-1.345.75h6.806l1.345-.75h-6.806Zm8.842-1.5-4.465-6.913a1.483 1.483 0 0 1-.238-.806V3H7.523v8.059l4.258 7.69h8.82ZM12.09 6c.42 0 .762.336.762.75V9c0 .414-.341.75-.762.75a.756.756 0 0 1-.76-.75V6.75c0-.414.34-.75.76-.75Zm1.918 8.936c-.15-.064-.223-.034-.242-.023-.02.01-.082.058-.101.218-.02.161.016.387.152.619.136.232.316.375.468.439.15.064.223.034.242.023.02-.01.082-.058.101-.218a1.017 1.017 0 0 0-.152-.619 1.04 1.04 0 0 0-.468-.44Zm.599-1.38a2.55 2.55 0 0 1 1.188 1.069c.284.486.408 1.035.345 1.548-.063.513-.324 1.038-.851 1.338-.528.3-1.12.26-1.602.058a2.55 2.55 0 0 1-1.189-1.069 2.494 2.494 0 0 1-.345-1.548c.063-.513.324-1.038.852-1.338.527-.3 1.12-.26 1.602-.058Z" class="Icon"/>
  </g>
</svg>
